images/ok-icon-colored.svg

<svg width="25" height="24" viewBox="0 0 25 24" fill="none" xmlns="http://www.w3.org/2000/svg">
<path d="M24.9412 20.4879C24.9412 22.4277 23.3767 24 21.447 24H4.4353C2.50552 24 0.941162 22.4277 0.941162 20.4879V3.51206C0.941162 1.57238 2.50552 0 4.4353 0H21.447C23.3768 0 24.9412 1.57238 24.9412 3.51206V20.4879Z" fill="#FAAB62"/>
<path d="M24.8183 20.4008C24.8183 22.3206 23.27 23.8768 21.36 23.8768H4.52303C2.61309 23.8768 1.06482 22.3206 1.06482 20.4008V3.59929C1.06482 1.67956 2.61315 0.123344 4.52303 0.123344H21.36C23.27 0.123344 24.8183 1.67962 24.8183 3.59929V20.4008Z" fill="#F7931E"/>
<path d="M12.9282 3.58696C10.5496 3.58696 8.62146 5.52509 8.62146 7.91581C8.62146 10.3066 10.5496 12.2449 12.9282 12.2449C15.3068 12.2449 17.235 10.3066 17.235 7.91581C17.235 5.52509 15.3068 3.58696 12.9282 3.58696ZM12.9282 9.70539C11.945 9.70539 11.1479 8.90415 11.1479 7.91588C11.1479 6.92761 11.945 6.12642 12.9282 6.12642C13.9115 6.12642 14.7085 6.92761 14.7085 7.91588C14.7085 8.90415 13.9115 9.70539 12.9282 9.70539Z" fill="white"/>
<path d="M14.4484 15.6894C16.1726 15.3364 17.2058 14.5157 17.2605 14.4716C17.765 14.0649 17.846 13.3242 17.4414 12.817C17.0369 12.3099 16.2999 12.2284 15.7953 12.635C15.7846 12.6437 14.6826 13.4934 12.8694 13.4946C11.0563 13.4934 9.93104 12.6437 9.92038 12.635C9.41573 12.2284 8.67879 12.3099 8.27423 12.817C7.86961 13.3242 7.95066 14.0649 8.45518 14.4716C8.51059 14.5163 9.58645 15.3584 11.3589 15.7031L8.88865 18.298C8.43972 18.766 8.45321 19.5111 8.91879 19.9623C9.14603 20.1826 9.4389 20.292 9.73153 20.292C10.0383 20.292 10.3448 20.1715 10.5746 19.932L12.8695 17.4748L15.3962 19.9479C15.854 20.4073 16.5953 20.4066 17.0523 19.9466C17.5092 19.4866 17.5086 18.7413 17.051 18.282L14.4484 15.6894Z" fill="white"/>
<path d="M12.8699 13.4948C12.8653 13.4948 12.8744 13.4949 12.8699 13.495C12.8654 13.4949 12.8745 13.4948 12.8699 13.4948Z" fill="white"/>
</svg>

<svg width="25" height="24" fill="none" xmlns="http://www.w3.org/2000/svg"><path d="M24.941 20.488A3.503 3.503 0 0121.447 24H4.435a3.503 3.503 0 01-3.494-3.512V3.512A3.503 3.503 0 014.435 0h17.012a3.503 3.503 0 013.494 3.512v16.976z" fill="#FAAB62"/><path d="M24.818 20.4a3.467 3.467 0 01-3.458 3.477H4.523A3.467 3.467 0 011.065 20.4V3.599A3.467 3.467 0 014.523.123H21.36A3.467 3.467 0 0124.818 3.6v16.802z" fill="#F7931E"/><path d="M12.928 3.587c-2.378 0-4.307 1.938-4.307 4.329 0 2.39 1.929 4.329 4.307 4.329 2.379 0 4.307-1.938 4.307-4.33 0-2.39-1.928-4.328-4.307-4.328zm0 6.118c-.983 0-1.78-.8-1.78-1.79 0-.987.797-1.789 1.78-1.789s1.78.802 1.78 1.79-.796 1.79-1.78 1.79zM14.448 15.69c1.725-.354 2.758-1.174 2.813-1.218a1.181 1.181 0 00.18-1.655 1.167 1.167 0 00-1.646-.182c-.01.009-1.112.858-2.926.86-1.813-.002-2.938-.851-2.949-.86a1.167 1.167 0 00-1.646.182 1.181 1.181 0 00.181 1.655c.056.044 1.131.886 2.904 1.231l-2.47 2.595a1.181 1.181 0 00.03 1.664 1.164 1.164 0 001.656-.03l2.295-2.457 2.526 2.473c.458.46 1.2.459 1.656-.001a1.181 1.181 0 00-.001-1.665l-2.603-2.593zM12.87 13.495c-.005 0 .004 0 0 0-.005 0 .005 0 0 0z" fill="#fff"/></svg>
